X:1
T:Over Where the Angels Sing
T:Over Where the Angels Sing
T:Joseph E. Schoate
T:Charles A. Tipton, 1910
T:Public Domain Courtesy of the Cyber Hymnal™
C:Joseph E. Schoate
Z:Public Domain
Z:Courtesy of the Cyber Hymnal™
%%score ( 1 2 ) ( 3 4 )
L:1/8
Q:1/4=105
M:4/4
K:Ab
V:1 treble 
V:2 treble 
V:3 bass 
V:4 bass 
V:1
 [Ec]2 [Ec]2 [Ec]2 [CA]2 | [Ec]2 [=Ec]2 [Fc]4 | [Fc][FB][FA][FB] [FA]2 [DF]2 | E6 z2 | %4
w: 1.~There’s a man- sion|bright and fair,|O- ver where the an- gels|sing;|
w: 2.~There our bless- èd|Lord we’ll see,|O- ver where the an- gels|sing;|
w: 3.~We are near- ing|now that shore,|O- ver where the an- gels|sing;|
 [Ae]2 [Ae]2 [Ae]2 [Af]2 | [Ac]2 [AB]2 [Ac]4 | [Ac][AB][FA][FB] [EA]2 [EB]2 | A6 z2 || %8
w: And the saved are|free from care,|O- ver where the an- gels|sing.|
w: And with Him for-|ev- er be,|O- ver where the an- gels|sing.|
w: There to dwell for-|ev- er- more,|O- ver where the an- gels|sing.|
"^Refrain" [Ae]2 [Ae]2 [Ae]2 [B=e]2 | [Af][Gf][Ff][Gf] [Af]4 | [Ac]2 [Fc]2 [Ec]2 [A=d]2 | %11
w: |||
w: We will join the|glad u- nit- ed band,|When we reach that|
w: |||
 [Ge][Fe][Ee][Fe] [Ge]4 | [Ae]2 [Af]2 [Ac]2 [EA]2 | [Ac]2 [Bc]2 [Ac]4 | %14
w: |||
w: hap- py prom- ised land,|And we’ll praise our|Lord and king,|
w: |||
 [Ac][AB][FA][FB] [EA]2 [EB]2 | A6 z2 |] %16
w: ||
w: O- ver where the an- gels|sing.|
w: ||
V:2
 x8 | x8 | x8 | (C2 C2 C2) x2 | x8 | x8 | x8 | (E2 F2 E2) x2 || x8 | x8 | x8 | x8 | x8 | x8 | x8 | %15
 (E2 F2 E2) x2 |] %16
V:3
 A,2 A,2 A,2 A,2 | A,2 [G,B,]2 [F,A,]4 | [D,A,][D,A,][D,D][D,D] [D,D]2 [F,A,]2 | A,2 A,2 A,2 z2 | %4
 [A,C]2 [A,C]2 [A,C]2 [A,D]2 | [A,E]2 [G,=E]2 [F,F]4 | [D,F][D,F][D,D][D,D] [E,C]2 [E,D]2 | %7
 (C2 D2 C2) z2 || [A,C]2 [A,C]2 [A,C]2 [G,C]2 | [F,C][F,B,][F,A,][F,B,] [F,C]4 | %10
 A,2 A,2 A,2 [F,B,]2 | [E,B,][E,A,][E,G,][E,A,] [E,B,]4 | [A,C]2 [A,D]2 [A,E]2 [A,C]2 | %13
 [A,E]2 [G,=E]2 [F,F]4 | [D,F][D,F][D,D][D,D] [E,C]2 [E,D]2 | (C2 D2 C2) z2 |] %16
V:4
 A,2 A,2 A,2 A,2 | A,2 x6 | x8 | (A,2 A,2 A,2) x2 | x8 | x8 | x8 | A,,6 x2 || x8 | x8 | %10
 A,2 A,2 A,2 x2 | x8 | x8 | x8 | x8 | A,,6 x2 |] %16

